X: 1
T: Little & Large
C: George Meikle
R: jig
Z: 2005 John Chambers <jc:trillian.mit.edu>
M: 6/8
L: 1/8
K: Edor
|: G/F/ \
| "Em"EB^A BAB | "A7"AGE E2F/E/ | "D"DA^G AGA | "D"BAF DEF | "Em"EB^A BAB | "D"AGA "G"B2A |
| "D"FAB "(B7)"AGF | "Em"E3 E2 :: G/F/ | "Em"Ee^d ede | "(E7)"dBA "A7"ABc | "D"Ddc dcd | "A7"ABG "D"FED |
| "Em"Ee^d ede | "(E7)"dBA "A7"ABc |1"D"dcd BAF | "Em"GEE E2 :|2"D"dcd "(B7)"AGF | "Em"GEE E2 |]
